src/assets/icons/microchip.svg

<svg width="14" height="14" viewBox="0 0 14 14" fill="none" xmlns="http://www.w3.org/2000/svg">
<g id="microchip">
<g clip-path="url(#clip0_295_4698)">
<path id="Vector" fill-rule="evenodd" clip-rule="evenodd" d="M3.8 0C4.13137 0 4.4 0.268629 4.4 0.6V1.6H6.4V0.6C6.4 0.268629 6.66863 0 7 0C7.33137 0 7.6 0.268629 7.6 0.6V1.6H9.6V0.6C9.6 0.268629 9.86863 0 10.2 0C10.5314 0 10.8 0.268629 10.8 0.6V1.6H11C11.7732 1.6 12.4 2.2268 12.4 3V3.2H13.4C13.7314 3.2 14 3.46863 14 3.8C14 4.13137 13.7314 4.4 13.4 4.4H12.4V6.4H13.4C13.7314 6.4 14 6.66863 14 7C14 7.33137 13.7314 7.6 13.4 7.6H12.4V9.6H13.4C13.7314 9.6 14 9.86863 14 10.2C14 10.5314 13.7314 10.8 13.4 10.8H12.4V11C12.4 11.7732 11.7732 12.4 11 12.4H10.8V13.4C10.8 13.7314 10.5314 14 10.2 14C9.86863 14 9.6 13.7314 9.6 13.4V12.4H7.6V13.4C7.6 13.7314 7.33137 14 7 14C6.66863 14 6.4 13.7314 6.4 13.4V12.4H4.4V13.4C4.4 13.7314 4.13137 14 3.8 14C3.46863 14 3.2 13.7314 3.2 13.4V12.4H3C2.2268 12.4 1.6 11.7732 1.6 11V10.8H0.6C0.268629 10.8 0 10.5314 0 10.2C0 9.86863 0.268629 9.6 0.6 9.6H1.6V7.6H0.6C0.268629 7.6 0 7.33137 0 7C0 6.66863 0.268629 6.4 0.6 6.4H1.6V4.4H0.6C0.268629 4.4 0 4.13137 0 3.8C0 3.46863 0.268629 3.2 0.6 3.2H1.6V3C1.6 2.2268 2.2268 1.6 3 1.6H3.2V0.6C3.2 0.268629 3.46863 0 3.8 0ZM3 2.8C2.88954 2.8 2.8 2.88954 2.8 3V11C2.8 11.1105 2.88954 11.2 3 11.2H11C11.1105 11.2 11.2 11.1105 11.2 11V3C11.2 2.88954 11.1105 2.8 11 2.8H3Z" fill="black"/>
</g>
</g>
<defs>
<clipPath id="clip0_295_4698">
<rect width="14" height="14" fill="white"/>
</clipPath>
</defs>
</svg>

<svg xmlns="http://www.w3.org/2000/svg" fill="none" viewBox="0 0 14 14"><g clip-path="url(#a)"><path fill="#000" fill-rule="evenodd" d="M3.8 0a.6.6 0 0 1 .6.6v1h2v-1a.6.6 0 0 1 1.2 0v1h2v-1a.6.6 0 0 1 1.2 0v1h.2A1.4 1.4 0 0 1 12.4 3v.2h1a.6.6 0 1 1 0 1.2h-1v2h1a.6.6 0 1 1 0 1.2h-1v2h1a.6.6 0 1 1 0 1.2h-1v.2a1.4 1.4 0 0 1-1.4 1.4h-.2v1a.6.6 0 1 1-1.2 0v-1h-2v1a.6.6 0 1 1-1.2 0v-1h-2v1a.6.6 0 1 1-1.2 0v-1H3A1.4 1.4 0 0 1 1.6 11v-.2h-1a.6.6 0 1 1 0-1.2h1v-2h-1a.6.6 0 0 1 0-1.2h1v-2h-1a.6.6 0 0 1 0-1.2h1V3A1.4 1.4 0 0 1 3 1.6h.2v-1a.6.6 0 0 1 .6-.6M3 2.8a.2.2 0 0 0-.2.2v8c0 .11.09.2.2.2h8a.2.2 0 0 0 .2-.2V3a.2.2 0 0 0-.2-.2z" clip-rule="evenodd"/></g><defs><clipPath id="a"><path fill="#fff" d="M0 0h14v14H0z"/></clipPath></defs></svg>
